assets/home-two-img/service_3_1.svg

<svg width="50" height="50" viewBox="0 0 50 50" fill="none" xmlns="http://www.w3.org/2000/svg">
<g clip-path="url(#clip0_457_25837)">
<path d="M28.338 22.5779C28.338 20.7229 26.8335 19.2139 24.9842 19.2139C23.1349 19.2139 21.6304 20.7229 21.6304 22.5779C21.6304 24.1379 22.6946 25.453 24.1329 25.8319L24.1499 29.3965C24.1522 29.8671 24.5344 30.235 25.0045 30.235H25.0087C25.4807 30.235 25.8615 29.8652 25.8593 29.3931L25.8423 25.8299C27.2773 25.4486 28.338 24.1353 28.338 22.5779ZM24.9843 24.2326C24.0776 24.2326 23.3399 23.4903 23.3399 22.5779C23.3399 21.6655 24.0775 20.9233 24.9843 20.9233C25.8909 20.9233 26.6287 21.6655 26.6287 22.5779C26.6287 23.4903 25.8909 24.2326 24.9843 24.2326Z" fill="#3E66F3"/>
<path d="M46.7918 21.5818C45.319 21.5818 44.0757 22.5427 43.7003 23.9316H37.9473C38.2848 22.329 38.5302 20.7264 38.721 19.017H42.8954C43.3674 19.017 43.6966 18.6676 43.6966 18.1956V10.0332C45.0855 9.65999 46.0815 8.41672 46.0815 6.94375C46.0815 5.17676 44.6558 3.73926 42.8866 3.73926C41.1176 3.73926 39.6584 5.17676 39.6584 6.94375C39.6584 8.4134 40.7051 9.65432 41.9872 10.0306V17.3076H38.8978C39.022 16.0256 39.121 14.6447 39.213 13.2835C39.2499 12.7379 38.7583 12.3219 38.2288 12.4042C37.2139 12.5983 36.1876 12.7446 35.1522 12.7446C31.7131 12.7444 28.5531 11.185 25.5429 8.02484C25.115 7.6602 24.694 7.668 24.2802 8.04823C21.0837 11.7983 16.6481 13.3573 11.7718 12.4039C11.2404 12.2999 10.7181 12.7378 10.755 13.2837C10.8487 14.6665 10.9473 16.0256 11.0677 17.3076H8.2265V10.0306C9.50855 9.65432 10.5663 8.41351 10.5663 6.94375C10.5663 5.17676 9.12265 3.73926 7.35363 3.73926C5.58462 3.73926 4.15214 5.17676 4.15214 6.94375C4.15214 8.41682 5.12821 9.65999 6.51709 10.0332V18.1955C6.51709 18.6675 6.88162 19.0169 7.35363 19.0169H11.2406C11.4295 20.7263 11.6704 22.3289 12.0028 23.9315H6.29979C5.92425 22.5426 4.68109 21.5817 3.20833 21.5817C1.43921 21.5818 0 23.0194 0 24.7864C0 26.5533 1.43921 27.9908 3.20823 27.9908C4.68098 27.9908 5.92415 27.0299 6.29968 25.641H12.4104C12.8681 27.3541 13.5151 28.9431 14.2359 30.5555H7.35363C6.88162 30.5555 6.51709 30.9051 6.51709 31.3771V39.968C5.12821 40.3427 4.15459 41.5848 4.15459 43.0561C4.15459 44.8231 5.58921 46.2606 7.35823 46.2606C9.12735 46.2606 10.5733 44.8231 10.5733 43.0561C10.5733 41.5848 9.61539 40.3427 8.2265 39.968V32.2649H15.2143C17.4032 35.6837 20.5324 38.0916 24.6973 39.6448C24.8984 39.7051 25.0998 39.7056 25.3013 39.6463C29.4277 38.0676 32.5348 35.5769 34.7167 32.2649H41.9872V39.968C40.7051 40.3427 39.6604 41.5848 39.6604 43.0561C39.6604 44.8231 41.1129 46.2606 42.8821 46.2606C44.6512 46.2606 46.0702 44.8231 46.0702 43.0561C46.0702 41.5848 45.0855 40.3427 43.6966 39.968V31.3772C43.6966 30.9052 43.3674 30.5556 42.8954 30.5556H35.7007C36.4355 28.948 37.0808 27.3521 37.5375 25.6411H43.7002C44.0757 27.03 45.3189 27.9909 46.7917 27.9909C48.5608 27.9908 50 26.5533 50 24.7863C50 23.0193 48.5608 21.5818 46.7918 21.5818ZM41.4013 6.94375C41.4013 6.11928 42.0736 5.44866 42.9 5.44866C43.7264 5.44866 44.3988 6.11928 44.3988 6.94375C44.3988 7.76821 43.7264 8.43883 42.9 8.43883C42.0736 8.43883 41.4013 7.76821 41.4013 6.94375ZM5.85021 6.94375C5.85021 6.11928 6.52265 5.44866 7.34904 5.44866C8.17543 5.44866 8.84786 6.11928 8.84786 6.94375C8.84786 7.76821 8.17543 8.43883 7.34904 8.43883C6.52265 8.43883 5.85021 7.76821 5.85021 6.94375ZM3.20823 26.2814C2.38184 26.2814 1.7094 25.6107 1.7094 24.7864C1.7094 23.9619 2.38184 23.2913 3.20823 23.2913C4.03462 23.2913 4.70705 23.9619 4.70705 24.7864C4.70716 25.6107 4.03472 26.2814 3.20823 26.2814ZM8.85246 43.0561C8.85246 43.8806 8.18002 44.5512 7.35363 44.5512C6.52724 44.5512 5.85491 43.8806 5.85491 43.0561C5.85491 42.2317 6.52724 41.5611 7.35363 41.5611C8.18002 41.5611 8.85246 42.2317 8.85246 43.0561ZM44.3942 43.0561C44.3942 43.8806 43.7218 44.5512 42.8954 44.5512C42.069 44.5512 41.3966 43.8806 41.3966 43.0561C41.3966 42.2317 42.069 41.5611 42.8954 41.5611C43.7218 41.5611 44.3942 42.2317 44.3942 43.0561ZM12.5359 14.2583C17.1475 14.8526 21.8593 13.416 24.9637 9.86308C28.3234 13.1206 32.7049 15.0402 37.4328 14.2518C36.6338 25.2356 34.9873 33.9287 24.9921 37.9113C14.9909 34.0224 13.3405 25.2982 12.5359 14.2583ZM46.7918 26.2814C45.9654 26.2814 45.2929 25.6107 45.2929 24.7864C45.2929 23.9619 45.9654 23.2913 46.7918 23.2913C47.6182 23.2913 48.2906 23.9619 48.2906 24.7864C48.2906 25.6107 47.6182 26.2814 46.7918 26.2814Z" fill="#3E66F3"/>
</g>
<defs>
<clipPath id="clip0_457_25837">
<rect width="50" height="50" fill="white"/>
</clipPath>
</defs>
</svg>

<?xml version="1.0" encoding="utf-8"?>
<!-- Generator: Adobe Illustrator 24.0.1, SVG Export Plug-In . SVG Version: 6.00 Build 0)  -->
<svg version="1.1" id="Layer_1" xmlns="http://www.w3.org/2000/svg" xmlns:xlink="http://www.w3.org/1999/xlink" x="0px" y="0px"
	 viewBox="0 0 50 50" style="enable-background:new 0 0 50 50;" xml:space="preserve">
<style type="text/css">
	.st0{fill:#11CDBD;}
</style>
<g>
	<path class="st0" d="M28.3,22.6c0-1.9-1.5-3.4-3.4-3.4s-3.4,1.5-3.4,3.4c0,1.6,1.1,2.9,2.5,3.3l0,3.6c0,0.5,0.4,0.8,0.9,0.8h0
		c0.5,0,0.9-0.4,0.9-0.8l0-3.6C27.3,25.4,28.3,24.1,28.3,22.6z M25,24.2c-0.9,0-1.6-0.7-1.6-1.7s0.7-1.7,1.6-1.7
		c0.9,0,1.6,0.7,1.6,1.7S25.9,24.2,25,24.2z"/>
	<path class="st0" d="M46.8,21.6c-1.5,0-2.7,1-3.1,2.3h-5.8c0.3-1.6,0.6-3.2,0.8-4.9h4.2c0.5,0,0.8-0.3,0.8-0.8V10
		c1.4-0.4,2.4-1.6,2.4-3.1c0-1.8-1.4-3.2-3.2-3.2c-1.8,0-3.2,1.4-3.2,3.2c0,1.5,1,2.7,2.3,3.1v7.3h-3.1c0.1-1.3,0.2-2.7,0.3-4
		c0-0.5-0.5-1-1-0.9c-1,0.2-2,0.3-3.1,0.3c-3.4,0-6.6-1.6-9.6-4.7c-0.4-0.4-0.8-0.4-1.3,0c-3.2,3.8-7.6,5.3-12.5,4.4
		c-0.5-0.1-1.1,0.3-1,0.9c0.1,1.4,0.2,2.7,0.3,4H8.2V10c1.3-0.4,2.3-1.6,2.3-3.1c0-1.8-1.4-3.2-3.2-3.2c-1.8,0-3.2,1.4-3.2,3.2
		c0,1.5,1,2.7,2.4,3.1v8.2c0,0.5,0.4,0.8,0.8,0.8h3.9c0.2,1.7,0.4,3.3,0.8,4.9H6.3c-0.4-1.4-1.6-2.3-3.1-2.3C1.4,21.6,0,23,0,24.8
		C0,26.6,1.4,28,3.2,28c1.5,0,2.7-1,3.1-2.3h6.1c0.5,1.7,1.1,3.3,1.8,4.9H7.4c-0.5,0-0.8,0.3-0.8,0.8V40c-1.4,0.4-2.4,1.6-2.4,3.1
		c0,1.8,1.4,3.2,3.2,3.2c1.8,0,3.2-1.4,3.2-3.2c0-1.5-1-2.7-2.3-3.1v-7.7h7c2.2,3.4,5.3,5.8,9.5,7.4c0.2,0.1,0.4,0.1,0.6,0
		c4.1-1.6,7.2-4.1,9.4-7.4H42V40c-1.3,0.4-2.3,1.6-2.3,3.1c0,1.8,1.5,3.2,3.2,3.2c1.8,0,3.2-1.4,3.2-3.2c0-1.5-1-2.7-2.4-3.1v-8.6
		c0-0.5-0.3-0.8-0.8-0.8h-7.2c0.7-1.6,1.4-3.2,1.8-4.9h6.2c0.4,1.4,1.6,2.3,3.1,2.3c1.8,0,3.2-1.4,3.2-3.2S48.6,21.6,46.8,21.6z
		 M41.4,6.9c0-0.8,0.7-1.5,1.5-1.5c0.8,0,1.5,0.7,1.5,1.5c0,0.8-0.7,1.5-1.5,1.5C42.1,8.4,41.4,7.8,41.4,6.9z M5.9,6.9
		c0-0.8,0.7-1.5,1.5-1.5s1.5,0.7,1.5,1.5c0,0.8-0.7,1.5-1.5,1.5S5.9,7.8,5.9,6.9z M3.2,26.3c-0.8,0-1.5-0.7-1.5-1.5
		c0-0.8,0.7-1.5,1.5-1.5s1.5,0.7,1.5,1.5C4.7,25.6,4,26.3,3.2,26.3z M8.9,43.1c0,0.8-0.7,1.5-1.5,1.5s-1.5-0.7-1.5-1.5
		c0-0.8,0.7-1.5,1.5-1.5S8.9,42.2,8.9,43.1z M44.4,43.1c0,0.8-0.7,1.5-1.5,1.5s-1.5-0.7-1.5-1.5c0-0.8,0.7-1.5,1.5-1.5
		S44.4,42.2,44.4,43.1z M12.5,14.3c4.6,0.6,9.3-0.8,12.4-4.4c3.4,3.3,7.7,5.2,12.5,4.4C36.6,25.2,35,33.9,25,37.9
		C15,34,13.3,25.3,12.5,14.3z M46.8,26.3c-0.8,0-1.5-0.7-1.5-1.5c0-0.8,0.7-1.5,1.5-1.5c0.8,0,1.5,0.7,1.5,1.5
		C48.3,25.6,47.6,26.3,46.8,26.3z"/>
</g>
</svg>
